icons/lightning-bolt-two-color.svg

<?xml version="1.0" encoding="UTF-8"?><svg xmlns="http://www.w3.org/2000/svg" viewBox="0 0 50 50"><g id="uuid-4505cfaa-bdc5-48cd-8b64-428070a24049"><path d="M26.82,17.46c-.09-.16-.08-.35,.02-.51l8.1-12.73h-10.7L12.61,22.79h13.65c.16,0,.3,.07,.4,.2,.09,.12,.12,.29,.08,.44l-6.79,23.68,20.87-29.38h-13.57c-.18,0-.35-.1-.44-.26Z" fill="#ffcd00"/><path d="M40.48,15.24c-.09-.17-.26-.27-.44-.27h-13.62L34.52,2.24c.1-.15,.1-.35,.02-.51-.09-.16-.26-.26-.44-.26h-11.89c-.17,0-.33,.09-.42,.24L9.54,21.27c-.1,.15-.1,.35-.01,.51s.26,.26,.44,.26h13.89l-7.41,25.85c-.07,.23,.04,.48,.26,.59,.07,.03,.14,.05,.22,.05,.16,0,.31-.07,.41-.21L40.45,15.76c.11-.15,.12-.35,.04-.52Zm-22.28,30.11l6.79-23.68c.04-.15,.01-.31-.08-.44-.09-.13-.24-.2-.4-.2H10.86L22.48,2.47h10.7l-8.1,12.73c-.1,.15-.1,.35-.02,.51,.09,.16,.26,.26,.44,.26h13.57l-20.87,29.38Z"/></g><g id="uuid-6af0802a-c670-45df-823e-9afbf65d5917"><text transform="translate(.39 54.88)" font-family="Roboto-Regular, Roboto" font-size="6"><tspan x="0" y="0">lightning-bolt</tspan></text></g></svg>

<svg xmlns="http://www.w3.org/2000/svg" viewBox="0 0 50 50"><g id="fa196958-e6bd-4606-b0e8-386fa8237eda" data-name="ICONS"><path d="M26.82,17.46a.49.49,0,0,1,0-.51l8.1-12.73H24.23L12.61,22.79H26.26a.48.48,0,0,1,.4.2.46.46,0,0,1,.08.44L20,47.1,40.82,17.72H27.26A.5.5,0,0,1,26.82,17.46Z" fill="#fdd600"/><path d="M40.48,15.24A.49.49,0,0,0,40,15H26.42l8.1-12.73a.49.49,0,0,0,0-.51.48.48,0,0,0-.43-.26H22.21a.5.5,0,0,0-.43.24L9.54,21.27a.49.49,0,0,0,0,.51A.51.51,0,0,0,10,22H23.85L16.44,47.89a.5.5,0,0,0,.26.59.54.54,0,0,0,.22.05.52.52,0,0,0,.41-.21L40.45,15.76A.49.49,0,0,0,40.48,15.24ZM18.21,45.35,25,21.68a.46.46,0,0,0-.08-.44.48.48,0,0,0-.4-.2H10.86L22.48,2.47H33.19L25.09,15.2a.5.5,0,0,0,.42.77H39.07Z" fill="#231f20"/></g><g id="bd057db9-1a4c-47f7-92ad-09ccf3ae7928" data-name="LABELS"><text transform="translate(0.39 54.88)" font-size="6" fill="#231f20" font-family="Roboto-Regular, Roboto">lightning-bolt</text></g></svg>
